X: 30582
T: One Fine Day…
R: waltz
M: 3/4
K: Gmajor
G2 g3 f|fg d3 B|cg cB GB|A4 AB|c3 d cB|cB G3 B|cg cB GB|A4 gf|
e3 f gf|e2 d2 Bc|dB AG dG|e3 B Bc|A6-|A3 G Bc|A6-|A6|
G2 g3 f|fg d3 B|cg cB GB|A4 AB|c3 d cB|cB G3 B|c2 d2 B2|A4- AB|
c2 ^GB eB|c2 A3 c|dG B^d ef|g2 f3 e|e6-|e2 zB Bc|A6-|A2 zG Bc|
AB c3 A|_Bc d3 B|cd ec ga|f6||[K: C#m] g2 Gceg|a4 ab|fB df bc'|g3 c cd|
ef ed cB|Ac de d2|ef gB de|^ef gG c/e/g|.a2 g3 f|f4 f2|.e2 d2 ef|e6|
ed cB GB|c6|g2 Gceg|a4 ab|fB df bc'|g3 f fe|a2 g2 eG|Ac de d2|
ef gB de|^ef gG c/e/g|ab g3 f|f4 f2|e2 d2 ef|e6|ed cB GB|c3 e ed|
ed cB GB|c6-|c6-|c6-|c4 z2||

